X:1
T:Over The Waves
T:Over The Waves
L:1/8
M:3/4
K:Bb
V:1 treble nm="P1"
V:1
"Bb""^= 120" D6 | ^C2 D2 F2 | B6- | B2 A2 B2 | c2 B2 A2 | B2 D2 F2 |"F7" A6- | A2 z2 z2 | E6 | %9
w: When|you are in|love|* It's the|love- li- est|night of the|year.||Stars|
 D2 E2 F2 | A6- | A2 ^G2 A2 | B2 A2 ^G2 | A2 E2 A2 |"Bb" D6- | D2 z2 z2 | D6 | ^C2 D2 F2 | B6- | %19
w: twin- kle a-|bove|* And you|al- most can|touch them from|here.||Words|fall in- to|ryhme|
 B2 A2 B2 | c2 B2 A2 | B2 D2 G2 |"Eb" G6- | G2 z2 z2 | G6 | C2 E2 G2 |"Bb" F6- | F2 e2 d2 | %28
w: * an- y|time you are|hold- ing me|near.||When|you are in|love,|* It's the|
"F7" c2 B2 A2 | G2 A2 c2 |"Bb" B6- | B4 G^G ||[K:Eb]"Eb""^A" G2 ^F2 G2 | e2 d2- dc | e6- | %35
w: love- li- est|time of the|year.||Waltz- ing a-|long in * the|blue|
 e2 d2 c2 | G2 ^F2 G2 | c2 B2- BA |"Bb7" D6- | D2 z2 DE | D2 ^C2 D2 | c2 B2 =A2 | c6- | c2 B2 A2 | %44
w: * like a|breeze drift- ing|o- ver * the|sand||Thrilled be the|won- der of|you|* and the|
 D2 ^C2 D2 | A2 G2 F2 |"Eb" E6 |"F7" F6 ||[K:Bb]"Bb""^B" D6 | ^C2 D2 F2 | B6- | B2 A2 B2 | %52
w: won- der- ful|touch of your|hand,|and|My|heart starts to|beat|* like a|
 c2 B2 A2 | B2 D3 F |"Eb" G6- | G6 |"Eb" G6 | G2 A2 B2 |"Bb" d6- |"C7" d2 e2 d2 | c2 B2 A2 | %61
w: child when a|birth- day is|near.||So|kiss me my|sweet|* It's the|lov- li- est|
"F7" G2 A2 c2 |"Bb" B6- | B2 z2 z2 |] %64
w: night of the|year.||

